images/tina.svg

<svg viewBox="0 0 1020 254" fill="none" xmlns="http://www.w3.org/2000/svg"><path d="M115.685 110.921c17.034-12.222 19.608-68.63 24.945-90.294C145.968-1.037 168.043.062 168.043.062s-5.731 9.973-3.394 17.416C166.987 24.921 183 31.573 183 31.573l-3.454 9.106s-7.212-.923-11.503 7.662c-11.21 22.423 8.325 87.895 8.325 87.895s-31.361 44.523-31.361 78.046c0 21.481 10.167 39.483 10.167 39.483h-14.267s-20.929-24.907-25.222-37.355c-4.292-12.448-2.576-24.895-2.576-24.895s-22.75-1.288-42.923 0c-20.173 1.287-33.626 18.629-36.054 28.329-2.428 9.7-3.434 33.921-3.434 33.921H19.417c-6.866-21.189-12.32-28.783-9.361-39.483 8.194-29.635 6.585-46.443 4.687-53.93C12.846 152.866 0 146.331 0 146.331c6.293-12.82 16.415-19.066 40.346-19.623 27.63-.642 58.306-3.566 75.339-15.787z" fill="#EC4815"/><path d="M44.113 213.041s2.915 26.977 18.402 40.724h13.272c-13.272-15.035-14.72-54.225-14.72-54.225-6.75 2.198-16.096 10.067-16.954 13.501zM290 124v29.6h-28.4v42c0 9.4 3.4 13 15.6 13 4.2 0 9.4-.4 14.4-.8V237c-5.4 1.2-14.2 2.6-25.2 2.6-34.8 0-41.2-20-41.2-35.4v-50.6h-18V124h18v-17.8l34.4-15.8h2V124H290zM320.581 81.2h39.2v29.2h-39.2V81.2zm-17.8 72.4V124h56.8v112h-36.4v-82.4h-20.4zM420.022 138.8h3.6c3.6-11.2 11.4-18.8 33.4-18.8 23 0 40.4 11.2 40.4 38.4V236h-36.4v-66.8c0-12.2-6.8-17.8-18-17.8-12.6 0-19.6 6.2-19.6 21.4V236h-36.4V124h33v14.8zM592.605 219h-2c-5.8 10.8-19.6 19.8-36.6 19.8-25 0-37.8-12.4-37.8-31.8 0-19.2 11.4-30.4 32.6-33.8l31.6-5c7-1.2 8.8-5 8.8-8.4v-2.2c0-5-3.6-11.2-15.6-11.2-10.2 0-16.2 4.6-16.8 12.4h-34.8c1.4-22.6 16.8-38.8 50-38.8 34.8 0 52 14 52 36.4v50.4h12.6V236h-44v-17zm-3.4-26.6V183h-2c-2 2.2-4.8 3.8-9.2 4.8l-14.8 3.6c-6.6 1.6-9.8 5.4-9.8 11.6 0 7.4 4.8 11.2 14.4 11.2 14.2 0 21.4-9.8 21.4-21.8zM726.356 200h21c-3.6 27.8-18.8 40-46.4 40-34.6 0-50.2-20.4-50.2-60 0-34.2 12-60 50.2-60 32 0 42.6 17.2 45.4 40h-21.2c-2-14.6-9-23.4-24.2-23.4-20 0-29.6 13.2-29.6 43.4 0 28 8 43 29.6 43 15 0 23.2-8.4 25.4-23zM846.18 139.6h2c3.6-11.6 12.2-19.6 26.2-19.6 18.6 0 26.2 12.4 26.2 38.4V236h-20v-74.4c0-13.6-2.8-22.8-14.8-22.8-11.6 0-18 10-18 28.6V236h-19.6v-74.4c0-13.4-3.2-22.8-14.6-22.8-13.8 0-18.4 11-18.4 30.4V236h-20V124h18.8v15.6h2.4c4.2-12.4 11.4-19.6 25.6-19.6 13.4 0 20.8 6.8 24.2 19.6zM1018.2 155h-21.6c-1.4-11.6-7.4-19.4-23-19.4-12 0-22.6 5-22.6 16.2 0 7.6 3.8 12.8 14.8 15.4l22.6 5.2c20.6 4.6 31.6 15.6 31.6 32.8 0 19.6-13 34.8-44.4 34.8-27.8 0-44.6-10.4-48.6-35h23c3.2 14.2 11.6 19.4 26 19.4 12 0 23.2-4.4 23.2-17.2 0-7.6-4.8-13.4-17.2-16.4l-26.4-6.2c-15.2-3.6-25-13.4-25-30.6 0-20 15.2-34 43.4-34 32 0 42.4 17.8 44.2 35z" fill="#EC4815"/></svg>

<svg viewBox="0 0 1020 254" fill="none" xmlns="http://www.w3.org/2000/svg">
<path d="M115.685 110.921C132.719 98.699 135.293 42.2913 140.63 20.6271C145.968 -1.03697 168.043 0.0618098 168.043 0.0618098C168.043 0.0618098 162.312 10.0353 164.649 17.478C166.987 24.9207 183 31.5735 183 31.5735L179.546 40.6787C179.546 40.6787 172.334 39.7562 168.043 48.3408C156.833 70.7637 176.368 136.236 176.368 136.236C176.368 136.236 145.007 180.759 145.007 214.282C145.007 235.763 155.174 253.765 155.174 253.765H140.907C140.907 253.765 119.978 228.858 115.685 216.41C111.393 203.962 113.109 191.515 113.109 191.515C113.109 191.515 90.3595 190.227 70.1863 191.515C50.0132 192.802 36.5597 210.144 34.1316 219.844C31.7036 229.544 30.6978 253.765 30.6978 253.765H19.4169C12.5507 232.576 7.09751 224.982 10.0558 214.282C18.2501 184.647 16.6405 167.839 14.7433 160.352C12.846 152.866 0 146.331 0 146.331C6.29266 133.511 16.4152 127.265 40.3455 126.708C67.9751 126.066 98.6519 123.142 115.685 110.921Z" fill="#EC4815"/>
<path d="M44.113 213.041C44.113 213.041 47.0281 240.018 62.5148 253.765H75.7865C62.5148 238.73 61.0676 199.54 61.0676 199.54C54.3171 201.738 44.9715 209.607 44.113 213.041Z" fill="#EC4815"/>
<path d="M290 124V153.6H261.6V195.6C261.6 205 265 208.6 277.2 208.6C281.4 208.6 286.6 208.2 291.6 207.8V237C286.2 238.2 277.4 239.6 266.4 239.6C231.6 239.6 225.2 219.6 225.2 204.2V153.6H207.2V124H225.2V106.2L259.6 90.4H261.6V124H290Z" fill="#EC4815"/>
<path d="M320.581 81.2H359.781V110.4H320.581V81.2ZM302.781 153.6V124H359.581V236H323.181V153.6H302.781Z" fill="#EC4815"/>
<path d="M420.022 138.8H423.622C427.222 127.6 435.022 120 457.022 120C480.022 120 497.422 131.2 497.422 158.4V236H461.022V169.2C461.022 157 454.222 151.4 443.022 151.4C430.422 151.4 423.422 157.6 423.422 172.8V236H387.022V124H420.022V138.8Z" fill="#EC4815"/>
<path d="M592.605 219H590.605C584.805 229.8 571.005 238.8 554.005 238.8C529.005 238.8 516.205 226.4 516.205 207C516.205 187.8 527.605 176.6 548.805 173.2L580.405 168.2C587.405 167 589.205 163.2 589.205 159.8V157.6C589.205 152.6 585.605 146.4 573.605 146.4C563.405 146.4 557.405 151 556.805 158.8H522.005C523.405 136.2 538.805 120 572.005 120C606.805 120 624.005 134 624.005 156.4V206.8H636.605V236H592.605V219ZM589.205 192.4V183H587.205C585.205 185.2 582.405 186.8 578.005 187.8L563.205 191.4C556.605 193 553.405 196.8 553.405 203C553.405 210.4 558.205 214.2 567.805 214.2C582.005 214.2 589.205 204.4 589.205 192.4Z" fill="#EC4815"/>
<path d="M726.356 200H747.356C743.756 227.8 728.556 240 700.956 240C666.356 240 650.756 219.6 650.756 180C650.756 145.8 662.756 120 700.956 120C732.956 120 743.556 137.2 746.356 160H725.156C723.156 145.4 716.156 136.6 700.956 136.6C680.956 136.6 671.356 149.8 671.356 180C671.356 208 679.356 223 700.956 223C715.956 223 724.156 214.6 726.356 200Z" fill="#EC4815"/>
<path d="M846.18 139.6H848.18C851.78 128 860.38 120 874.38 120C892.98 120 900.58 132.4 900.58 158.4V236H880.58V161.6C880.58 148 877.78 138.8 865.78 138.8C854.18 138.8 847.78 148.8 847.78 167.4V236H828.18V161.6C828.18 148.2 824.98 138.8 813.58 138.8C799.78 138.8 795.18 149.8 795.18 169.2V236H775.18V124H793.98V139.6H796.38C800.58 127.2 807.78 120 821.98 120C835.38 120 842.78 126.8 846.18 139.6Z" fill="#EC4815"/>
<path d="M1018.2 155H996.6C995.2 143.4 989.2 135.6 973.6 135.6C961.6 135.6 951 140.6 951 151.8C951 159.4 954.8 164.6 965.8 167.2L988.4 172.4C1009 177 1020 188 1020 205.2C1020 224.8 1007 240 975.6 240C947.8 240 931 229.6 927 205H950C953.2 219.2 961.6 224.4 976 224.4C988 224.4 999.2 220 999.2 207.2C999.2 199.6 994.4 193.8 982 190.8L955.6 184.6C940.4 181 930.6 171.2 930.6 154C930.6 134 945.8 120 974 120C1006 120 1016.4 137.8 1018.2 155Z" fill="#EC4815"/>
</svg>
